X:1
T:Oboe Sonata No. 2 in F
T:Oboe Sonata No. 2 in F
T:François Devienne Rondeau Opus 70
T:by Mutopia 2014/11/20-1991
T:by Mutopia 2014/11/20-1991
T:by Mutopia 2014/11/20-1991
T:by Mutopia 2014/11/20-1991
T:by Mutopia 2014/11/20-1991
Z:by Mutopia 2014/11/20-1991
%%score [ 1 2 ]
L:1/8
Q:1/4=120
M:2/4
K:F
V:1 treble nm="Oboe"
V:2 bass nm="Bassoon"
V:1
"^Rondeau" c | (a2 g)f |S (f2 e)c | (b2 a)g | (g2 f)c | c'c' c'c' | d(e/^f/){/a} (g/f/g/)a/ | %7
 (c'/b/)(a/g/) (b/a/)(g/f/) | e/(c/=B/c/ d/e/f/g/) | (a2 g)f | (f2 e)c | (b2 a)g | (g2 f)(c | %13
 c')c' c'c'- | c'b/a/ b(g/a/ | b)b bb- | b(a/g/ a)(f/a/ | g)(g/e/ f)(c'/a/ | b)(b/g/ a)(f/a/ | %19
 g)(g/e/ f)(c'/a/ | b)(b/g/ a)(f/g/) | (a/b/c'/b/ a/g/f/e/ | d/e/f/^f/ g/a/b/g/ | %23
 f)f/(a/ Tg/f/g/)e/ | f(F/G/ A/B/c/d/) | (e/f/g/a/ b/c'/d'/c'/) | =b _b2 a | gg c'c' | %28
 a(F/G/ A/B/c/d/) | (e/f/g/a/ b/c'/d'/c'/) | (b/a/g/f/ e/d/c/B/) | (A/c/)(f/a/) ((g/b/))(e/g/) | %32
 f2 z2 | (^f/g/a/g/ =f/e/d/c/) | f2 z2 | (^f/g/a/g/ =f/e/d/c/) | fa fa | f2 a2 | %38
 f2 !fermata!z!fine! |] c | a2 f2 | c3 f/a/ | (a/g/^f/g/ =f/e/f/d/) | c3 (e/g/) | f G2 =b | %45
 c' g2 (e/g/) | f G2 =b | c' g2 (e/g/) | (g/f/)(f/e/) (e/d/)(d/e/) | (e/f/)(f/e/) (e/d/)(d/e/) | %50
 (e/f/)(f/e/) (e/d/)(d/c/) | =B2 z G | c3 (d/c/ | =B)c de | f{/g}(Tf/e/ f)g | e2 z c | (c'3 a) | %57
 (g3 e) | (gf ef) | d2 z G | c3 (d/c/ | =B)c de | f{/g}(f/e/ f)g | e2 z g | (b2 a)g | (g2 f)a | %66
 (a2 g)f | (f2 e)g | fe/>e/ dc | =B2 z g |{/g} Tfe{/e} Tdc | =B3 g | (f/g/a/g/ f/e/d/c/) | %73
 (=B/c/d/c/ B/A/G/F/) | (E/G/c/e/ g/e/c/G/) | (E/G/c/e/ g/e/c/G/) | (f/d/^c/d/) (=B/G/^F/G/) | %77
 (f/d/^c/d/) (=B/G/^F/G/) | (Tc/=B/c/)d/ (Te/d/e/)f/ | (Tg/f/g/)a/ bB | (A/c/f/c/) (A/c/f/c/) | %81
 (B/d/f/d/) (=B/d/f/d/) | (c/e/g/e/) (^c/e/a/e/) | (d/f/a/f/) (d/f/=b/f/) | %84
 e/(g/e/g/) (c'/g/^f/g/) | (a/g/f/e/ d/c/=B/A/) | G4 | Td4 | e z z2 |{/=B} c z z2 |{/^d} e z z2 | %91
{/^f} g z z2 | bc/e/ (d/c/)e/g/ | (f/e/)g/b/ (a/g/)b/d'/ | (c'/b/a/g/ f/e/d/c/ | %95
 B/A/G/F/ E/F/G/A/) | (B/=B/c/^c/ d/e/f/g/) | (a2 g)f!D.S.! || f | (a2 fd) | (d2 ^c)b | (b2 a)g | %102
 (g2 f)a | d'3 c' | ba gf | ee{/e} (Td^c/d/) | ^c2 z a | (a2 f)d | (d2 ^c)b | (b2 a)g | (g2 f)a | %111
 d'3 c' | ba (ga/b/ | c'3) b | ag f_e | d/(^f/g/f/ g/a/b/a/) | (c'/b/a/g/) b/a/g/f/ | %117
 (f/e/)(a/g/) (f/e/f/)d/ | c2 z c | (F/A/c/A/) (F/A/c/A/) | (F/A/c/f/) (a/_a/=a/f/) | %121
 (e/g/b/g/) (e/c/=B/c/) | (B/c/d/c/) (B/A/G/F/) | (E/G/c/G/) (E/G/c/G/) | (E/G/c/e/) (g/e/g/b/) | %125
 a/(f/e/f/) (c/=B/c/A/) | F/A/d/c/ (c/B/A/G/) | (F/A/c/A/) (F/A/c/A/) | F/A/c/f/ (a/^g/a/f/) | %129
 _e/(c/=B/c/ d/c/B/c/) | (_e/d/c/B/ A/G/^F/E/) | D/(d/^c/d/) (^f/d/c/d/) | %132
 D/(d/^c/d/) (^f/d/c/d/) | g2 z2 | z/ (b/a/b/) (g/a/)(f/g/) | e2 z2 | z/ (a/^g/a/) (f/=g/)(e/f/) | %137
 d2 z2 | z/ (g/f/g/) (e/f/)(d/e/) | c/e/(g/f/) (e/f/)(d/e/) | c/e/(g/f/) (e/f/)(d/e/) | %141
 c/e/(g/f/) (e/f/)(d/e/) | c/e/(g/f/ e/d/c/B/) | A/(F/G/A/ B/c/d/e/ | f/g/a/b/ c')c | %145
 ^c/(d/e/d/ c/d/e/f/ | g/a/b/c'/ d')d | c4 |{/a} Tg4 | f2 z2 | z4 | z4 | z2 z a | (a2 f)d | %154
 (d2 ^c)b | (b2 a)g | (g2 f)a | d'3 c' | ba gf | ee{/e} (d/^c/d/e/) | ^c2 z a | (a2 f)d | %162
 (d2 ^c)b | (b2 a)g | (g2 f)a | d'3 c' | b b2 a | ^g4 | a2 z a | !/!^g4 | a2 z a | !/!^g4 | !/!a4 | %173
 aa aa | (b/a/b/c'/ b/a/g/f/) | (f/e/d/c/ B/A/G/F/) | (E/D/C/D/ E/F/G/A/) | (B/c/d/e/ f/^f/g/^g/) | %178
 a2 (gf)!D.S.! |] %179
V:2
 z | F,4 | G,2 z2 | (G,4 | A,2) z2 | A,,4 | B,,2 B,,2 | B,,2 =B,,2 | C,2 z2 | z F, G,A, | %10
 G,B,/A,/ G,F, | E,G, CB, | A,C/B,/ A,G, | ^F,A, D,F, | G,G,, G,F, | E,G, C,E, | F,F,, F,A, | %17
 (B,2 A,) z | (E,2 F,)A, | (B,2 A,) z | (E,2 F,) z | !/!F,,4 | !/!B,,4 | !/!C,4 | F, z z2 | z4 | %26
 D, E,2 F, | B,,B,, C,C, | F,, z z2 | z4 | D,2 E,2 | F,A, CC, | (F,/G,/F,/E,/ F,/G,/A,/B,/) | C4 | %34
 (F,/G,/F,/E,/ F,/G,/A,/B,/) | CC B,B, | A,F, F,F, | F,2 F,2 | F,,2 !fermata!z |] z | z F,, A,,C, | %41
 F,F,, F, z | z E,, G,,C, | E,G, C z | D,4 | E,4 | D,4 | E,4 | A,G, F,G, | A,G, F,G, | A,G, F,^F, | %51
 G,A, G,F, | E,G, E,G, | F,E, D,C, | =B,,2 G,,2 | C,E, G,C | A,C A,F, | E,G, E,C, | A,,2 F,,2 | %59
 G,, G,2 F, | E,G, E,G, | F,E, D,C, | =B,,2 G,,2 | C,C,, C, z | ^C4 | D4 | =B,4 | C4 | (F,2 ^F,2 | %69
 G,2) (E,2 | F,2 ^F,2 | G,2) (E,2 | F,2 ^F,2 | G,2) G,,2 | C,2 E,2 | C,2 E,2 | D,=B,, D,B,, | %77
 D,=B,, D,B,, | C,2 C,2 | E,2 E,2 | F,2 A,,2 | B,,2 =B,,2 | C,2 ^C,2 | D,2 G,,2 | C,2 E,2 | %85
 F,2 F,2 | !/!G,4 | !/!G,,4 | C,/C/=B,/A,/ G,/F,/E,/D,/ | C,/G,/F,/E,/ D,/C,/=B,,/A,,/ | %90
 G,,/E,/D,/C,/ =B,,/A,,/G,,/F,,/ | E,,/C,/=B,,/A,,/ G,,/F,,/E,,/D,,/ | C,, z z2 | z4 | z4 | z4 | %96
 z4 | F,4 || z | D,4 | E,4 | ^C,4 | D,4 | z D, E,^F, | G,A, B,A, | G,2 ^G,2 | A,A,, A, z | D,4 | %108
 E,4 | ^C,4 | D,4 | z D, E,^F, | G,A, B, z | z C, D,E, | F,G, A,A,, | B,,2 B,,2 | B,,2 B,,=B,, | %117
 C,2 G,,2 | C,C,, C, z | A,3 C | A,2 F,2 | G,2 z2 | G,2 z2 | C,3 E, | G,3 E, | F, z A,,C, | %126
 F,G, A,B, | A,3 C | A,2 F,2 | ^F,2 z2 | ^F,2 z2 | ^F,3 A, | ^F,2 A,D | (B,/D/^C/D/) B,/=C/A,/B,/ | %134
 G,2 z2 | z/ C/=B,/C/ A,/_B,/G,/A,/ | F,2 z2 | z/ B,/A,/B,/ G,/A,/F,/G,/ | E,2 G,F, | E,2 G,F, | %140
 E,2 G,F, | E,2 G,F, | !/!E,4 | F,2 G,2 | A,2 A,,2 | B,,2 B,,2 | !/!B,,4 | !/!C,4 | !/!C,4 | %149
 F,A, A,A, | !/!A,4 | A,/G,/A,/B,/ A,/G,/A,/B,/ | A,/G,/A,/B,/ A,/G,/F,/E,/ | D,4 | E,4 | ^C,4 | %156
 D,4 | z D, E,^F, | G,A, B,A, | G,G, ^G,G, | A,A,, A, z | D,4 | E,4 | ^C,4 | D,4 | z D, E,^F, | %166
 G,2 A,2 | !/!B,4 | A,E, ^C,A,, | D,F, E,D, | ^C,E, C,A,, | D,F, E,D, | ^C,2 z2 | z4 | z4 | z4 | %176
 z4 | z4 | F,4 |] %179

